webapp/sources/rudder/rudder-web/src/main/svg/dsc-icon.svg

<?xml version="1.0" encoding="UTF-8" standalone="no"?>
<svg
   xmlns:dc="http://purl.org/dc/elements/1.1/"
   xmlns:cc="http://creativecommons.org/ns#"
   xmlns:rdf="http://www.w3.org/1999/02/22-rdf-syntax-ns#"
   xmlns:svg="http://www.w3.org/2000/svg"
   xmlns="http://www.w3.org/2000/svg"
   xmlns:sodipodi="http://sodipodi.sourceforge.net/DTD/sodipodi-0.dtd"
   xmlns:inkscape="http://www.inkscape.org/namespaces/inkscape"
   version="1.1"
   viewBox="0 0 16 23"
   height="23"
   width="16"
   id="svg4136"
   inkscape:version="0.91 r13725"
   sodipodi:docname="dsc-icon.svg">
  <sodipodi:namedview
     pagecolor="#ffffff"
     bordercolor="#666666"
     borderopacity="1"
     objecttolerance="10"
     gridtolerance="10"
     guidetolerance="10"
     inkscape:pageopacity="0"
     inkscape:pageshadow="2"
     inkscape:window-width="1865"
     inkscape:window-height="1056"
     id="namedview4143"
     showgrid="false"
     inkscape:zoom="12.786087"
     inkscape:cx="6.6012165"
     inkscape:cy="-2.867557"
     inkscape:window-x="55"
     inkscape:window-y="24"
     inkscape:window-maximized="1"
     inkscape:current-layer="svg4136"
     showguides="false" />
  <metadata
     id="metadata10">
    <rdf:RDF>
      <cc:Work
         rdf:about="">
        <dc:format>image/svg+xml</dc:format>
        <dc:type
           rdf:resource="http://purl.org/dc/dcmitype/StillImage" />
        <dc:title></dc:title>
      </cc:Work>
    </rdf:RDF>
  </metadata>
  <defs
     id="defs8" />
  <path
     id="path4"
     d="m 6.5908036,8.533349 0,6.180666 -6.47496503,-0.89245 0,-5.288216 6.47496503,0 z m 0,-7.0540844 0,6.2565774 -6.47496503,0 0,-5.3641467 z m 9.3231884,7.0540844 0,7.462354 -8.6111317,-1.186764 0,-6.27559 8.6111317,0 z m 0,-8.33579142 0,7.53828442 -8.6111317,0 0,-6.3515391 z"
     inkscape:connector-curvature="0"
     style="fill:#440e62;fill-opacity:1" />
  <text
     id="text4138"
     y="22.625399"
     x="1.5062733"
     style="font-style:normal;font-weight:normal;font-size:0.10885043px;line-height:125%;font-family:sans-serif;letter-spacing:0px;word-spacing:0px;fill:#440e62;fill-opacity:1;stroke:none;stroke-width:1px;stroke-linecap:butt;stroke-linejoin:miter;stroke-opacity:1;"
     xml:space="preserve"
     sodipodi:linespacing="125%"><tspan
       style="font-style:normal;font-variant:normal;font-weight:500;font-stretch:normal;font-size:6.80315113px;font-family:Ubuntu;-inkscape-font-specification:'Ubuntu Medium';fill:#440e62;fill-opacity:1;"
       y="22.625399"
       x="1.5062733"
       id="tspan4140">DSC</tspan></text>
</svg>

<?xml version="1.0" encoding="UTF-8" standalone="no"?>
<svg
   version="1.1"
   viewBox="0 0 16 17"
   height="17"
   width="16"
   id="svg4136"
   xmlns="http://www.w3.org/2000/svg"
   xmlns:svg="http://www.w3.org/2000/svg"
   xmlns:rdf="http://www.w3.org/1999/02/22-rdf-syntax-ns#"
   xmlns:cc="http://creativecommons.org/ns#"
   xmlns:dc="http://purl.org/dc/elements/1.1/">
  <metadata
     id="metadata10">
    <rdf:RDF>
      <cc:Work
         rdf:about="">
        <dc:format>image/svg+xml</dc:format>
        <dc:type
           rdf:resource="http://purl.org/dc/dcmitype/StillImage" />
      </cc:Work>
    </rdf:RDF>
  </metadata>
  <defs
     id="defs8" />
  <path
     id="path4"
     d="m 6.5908036,8.533349 v 6.180666 L 0.11583857,13.821565 V 8.533349 Z m 0,-7.0540844 V 7.735842 H 0.11583857 V 2.3716953 Z M 15.913992,8.533349 v 7.462354 L 7.3028603,14.808939 v -6.27559 z m 0,-8.33579142 V 7.735842 H 7.3028603 V 1.3843029 Z"
     style="fill:#440e62;fill-opacity:1" />
</svg>
